X:1
T:Air - Presto
T:Air - Presto
T:Gaetano Brandi
C:Gaetano Brandi
%%score 1 2
L:1/8
Q:1/4=192
M:2/4
K:C
V:1 treble 
V:2 treble 
V:1
|:"^Presto"!f! .g2 gg | g3 e | (fgag) |{f} (f2 .e2) | .g2 gg | g3 e |{e} (dcde) | c2 z2 :: %8
!p! (fd)(gf) |!f! .e.g .c'2 |!p! (fd)(gf) |!f! .e.g .c'2 | (c'bag) | g3 e |{e} (dcde) | c2 z2 :| %16
V:2
|: E/G/c/G/ E/G/c/G/ | E3 c | (defe) |{e} (d2 .c2) | E/G/c/G/ E/G/c/G/ | E2 c2 |{G} (FEFG) | %7
 E2 z2 :: G G2 G | .c.e .e2 | G G2 G | .c.e .e2 | (agfe) | e2 c2 |{G} FEFG | E2 z2 :| %16

